assets/images/dry_social_icon.svg

<?xml version="1.0" encoding="UTF-8"?>
<svg width="224px" height="224px" viewBox="0 0 224 224" version="1.1" xmlns="http://www.w3.org/2000/svg" xmlns:xlink="http://www.w3.org/1999/xlink">
    <title>dry_social_icon</title>
    <defs>
        <path d="M133.8532,44.176 L133.8532,59.75 L144.8662,48.738 C153.4268,40.176 167.3272,40.176 175.888,48.738 C184.4486,57.298 184.4486,71.198 175.888,79.76 L164.875,90.772 L180.4496,90.772 C192.5562,90.772 202.3854,100.602 202.3854,112.708 C202.3854,124.814 192.5562,134.644 180.4496,134.644 L164.875,134.644 L175.888,145.656 C184.4486,154.218 184.4486,168.118 175.888,176.678 C167.3272,185.24 153.4268,185.24 144.8662,176.678 L133.8532,165.666 L133.8532,181.24 C133.8532,193.346 124.0242,203.176 111.9176,203.176 C99.8108,203.176 89.9818,193.346 89.9818,181.24 L89.9818,165.666 L78.969,176.678 C70.4082,185.24 56.5078,185.24 47.9472,176.678 C39.3864,168.118 39.3864,154.218 47.9472,145.656 L58.96,134.644 L43.3856,134.644 C31.2788,134.644 21.44978,124.814 21.44978,112.708 C21.44978,100.602 31.2788,90.772 43.3856,90.772 L58.96,90.772 L47.9472,79.76 C39.3864,71.198 39.3864,57.298 47.9472,48.738 C56.5078,40.176 70.4082,40.176 78.969,48.738 L89.9818,59.75 L89.9818,44.176 C89.9818,32.07 99.8108,22.24 111.9176,22.24 C124.0242,22.24 133.8532,32.07 133.8532,44.176 Z" id="path-1"></path>
        <path d="M112.40342,21.936 L112.40342,37.51 L123.41642,26.498 C131.97702,17.936 145.87742,17.936 154.43822,26.498 C162.99882,35.058 162.99882,48.958 154.43822,57.52 L143.42522,68.532 L158.99982,68.532 C171.10642,68.532 180.93562,78.362 180.93562,90.468 C180.93562,102.574 171.10642,112.404 158.99982,112.404 L143.42522,112.404 L154.43822,123.416 C162.99882,131.978 162.99882,145.878 154.43822,154.438 C145.87742,163 131.97702,163 123.41642,154.438 L112.40342,143.426 L112.40342,159 C112.40342,171.106 102.57442,180.936 90.46782,180.936 C78.36102,180.936 68.53202,171.106 68.53202,159 L68.53202,143.426 L57.51922,154.438 C48.95842,163 35.05802,163 26.49742,154.438 C17.93662,145.878 17.93662,131.978 26.49742,123.416 L37.51022,112.404 L21.93582,112.404 C9.82902,112.404 0,102.574 0,90.468 C0,78.362 9.82902,68.532 21.93582,68.532 L37.51022,68.532 L26.49742,57.52 C17.93662,48.958 17.93662,35.058 26.49742,26.498 C35.05802,17.936 48.95842,17.936 57.51922,26.498 L68.53202,37.51 L68.53202,21.936 C68.53202,9.83 78.36102,0 90.46782,0 C102.57442,0 112.40342,9.83 112.40342,21.936 Z" id="path-2"></path>
    </defs>
    <g id="dry_social_icon" stroke="none" fill="none" xlink:href="#path-1" fill-rule="evenodd">
        <g id="dry_icon" transform="translate(21.4498, 22.24)" xlink:href="#path-2">
            <path d="M37.51022,112.404 L21.93582,112.404 C9.82902,112.404 0,102.574 0,90.468 C0,78.362 9.82902,68.532 21.93582,68.532 L37.51022,68.532 L26.49742,57.52 C17.93662,48.958 17.93662,35.058 26.49742,26.498 C35.05802,17.936 48.95842,17.936 57.51922,26.498 L68.53202,37.51 L68.53202,21.936 C68.53202,9.83 78.36102,0 90.46782,0 C102.57442,0 112.40342,9.83 112.40342,21.936 L112.40342,37.51 L123.41642,26.498 C131.97702,17.936 145.87742,17.936 154.43822,26.498 C162.99882,35.058 162.99882,48.958 154.43822,57.52 L143.42522,68.532 L158.99982,68.532 C171.10642,68.532 180.93562,78.362 180.93562,90.468 C180.93562,102.574 171.10642,112.404 158.99982,112.404 L143.42522,112.404 L154.43822,123.416 C162.99882,131.978 162.99882,145.878 154.43822,154.438 C145.87742,163 131.97702,163 123.41642,154.438 L112.40342,143.426 L112.40342,159 C112.40342,171.106 102.57442,180.936 90.46782,180.936 C78.36102,180.936 68.53202,171.106 68.53202,159 L68.53202,143.426 L57.51922,154.438 C48.95842,163 35.05802,163 26.49742,154.438 C17.93662,145.878 17.93662,131.978 26.49742,123.416 L37.51022,112.404 Z" id="Fill-2" fill="#FF8000"></path>
            <path d="M91.69542,47.606 C114.21202,47.606 132.49282,65.886 132.49282,88.404 C132.49282,110.92 114.21202,129.202 91.69542,129.202 C69.17862,129.202 50.89782,110.92 50.89782,88.404 C50.89782,65.886 69.17862,47.606 91.69542,47.606 Z" id="Fill-6" fill="#FFC266"></path>
            <path d="M70.51742,80.438 C69.15042,79.704 68.63622,77.998 69.36982,76.632 C70.10322,75.264 71.80862,74.75 73.17562,75.484 L85.46042,82.076 C86.37762,82.568 86.94782,83.528 86.9420638,84.568 C86.93622,85.61 86.35562,86.562 85.43282,87.044 L73.28902,93.388 C71.91402,94.108 70.21442,93.574 69.49622,92.198 C68.77782,90.824 69.31102,89.124 70.68602,88.406 L78.12462,84.52 L70.51742,80.438 Z" id="Fill-7" fill="#000000"></path>
            <path d="M110.21502,75.484 C111.58202,74.75 113.28742,75.264 114.02082,76.632 C114.75442,77.998 114.24022,79.704 112.87322,80.438 L105.26602,84.52 L112.70462,88.406 C114.07962,89.124 114.61282,90.824 113.89442,92.198 C113.17622,93.574 111.47662,94.108 110.10162,93.388 L97.95782,87.044 C97.03502,86.562 96.45442,85.61 96.4485762,84.568 C96.44282,83.528 97.01302,82.568 97.93022,82.076 L110.21502,75.484 Z" id="Fill-8" fill="#000000"></path>
        </g>
    </g>
</svg>

<svg height="224" viewBox="0 0 224 224" width="224" xmlns="http://www.w3.org/2000/svg" xmlns:xlink="http://www.w3.org/1999/xlink"><defs><path d="m133.8532 44.176v15.574l11.013-11.012c8.5606-8.562 22.461-8.562 31.0218 0 8.5606 8.56 8.5606 22.46 0 31.022l-11.013 11.012h15.5746c12.1066 0 21.9358 9.83 21.9358 21.936s-9.8292 21.936-21.9358 21.936h-15.5746l11.013 11.012c8.5606 8.562 8.5606 22.462 0 31.022-8.5608 8.562-22.4612 8.562-31.0218 0l-11.013-11.012v15.574c0 12.106-9.829 21.936-21.9356 21.936-12.1068 0-21.9358-9.83-21.9358-21.936v-15.574l-11.0128 11.012c-8.5608 8.562-22.4612 8.562-31.0218 0-8.5608-8.56-8.5608-22.46 0-31.022l11.0128-11.012h-15.5744c-12.1068 0-21.93582-9.83-21.93582-21.936s9.82902-21.936 21.93582-21.936h15.5744l-11.0128-11.012c-8.5608-8.562-8.5608-22.462 0-31.022 8.5606-8.562 22.461-8.562 31.0218 0l11.0128 11.012v-15.574c0-12.106 9.829-21.936 21.9358-21.936 12.1066 0 21.9356 9.83 21.9356 21.936z"/><path id="a" d="m112.40342 21.936v15.574l11.013-11.012c8.5606-8.562 22.461-8.562 31.0218 0 8.5606 8.56 8.5606 22.46 0 31.022l-11.013 11.012h15.5746c12.1066 0 21.9358 9.83 21.9358 21.936s-9.8292 21.936-21.9358 21.936h-15.5746l11.013 11.012c8.5606 8.562 8.5606 22.462 0 31.022-8.5608 8.562-22.4612 8.562-31.0218 0l-11.013-11.012v15.574c0 12.106-9.829 21.936-21.9356 21.936-12.1068 0-21.9358-9.83-21.9358-21.936v-15.574l-11.0128 11.012c-8.5608 8.562-22.4612 8.562-31.0218 0-8.5608-8.56-8.5608-22.46 0-31.022l11.0128-11.012h-15.5744c-12.1068 0-21.93582-9.83-21.93582-21.936s9.82902-21.936 21.93582-21.936h15.5744l-11.0128-11.012c-8.5608-8.562-8.5608-22.462 0-31.022 8.5606-8.562 22.461-8.562 31.0218 0l11.0128 11.012v-15.574c0-12.106 9.829-21.936 21.9358-21.936 12.1066 0 21.9356 9.83 21.9356 21.936z"/></defs><g fill="none" fill-rule="evenodd" transform="translate(21.4498 22.24)" xlink:href="#a"><path d="m37.51022 112.404h-15.5744c-12.1068 0-21.93582-9.83-21.93582-21.936s9.82902-21.936 21.93582-21.936h15.5744l-11.0128-11.012c-8.5608-8.562-8.5608-22.462 0-31.022 8.5606-8.562 22.461-8.562 31.0218 0l11.0128 11.012v-15.574c0-12.106 9.829-21.936 21.9358-21.936 12.1066 0 21.9356 9.83 21.9356 21.936v15.574l11.013-11.012c8.5606-8.562 22.461-8.562 31.0218 0 8.5606 8.56 8.5606 22.46 0 31.022l-11.013 11.012h15.5746c12.1066 0 21.9358 9.83 21.9358 21.936s-9.8292 21.936-21.9358 21.936h-15.5746l11.013 11.012c8.5606 8.562 8.5606 22.462 0 31.022-8.5608 8.562-22.4612 8.562-31.0218 0l-11.013-11.012v15.574c0 12.106-9.829 21.936-21.9356 21.936-12.1068 0-21.9358-9.83-21.9358-21.936v-15.574l-11.0128 11.012c-8.5608 8.562-22.4612 8.562-31.0218 0-8.5608-8.56-8.5608-22.46 0-31.022z" fill="#ff8000"/><path d="m91.69542 47.606c22.5166 0 40.7974 18.28 40.7974 40.798 0 22.516-18.2808 40.798-40.7974 40.798-22.5168 0-40.7976-18.282-40.7976-40.798 0-22.518 18.2808-40.798 40.7976-40.798z" fill="#ffc266"/><g fill="#000"><path d="m70.51742 80.438c-1.367-.734-1.8812-2.44-1.1476-3.806.7334-1.368 2.4388-1.882 3.8058-1.148l12.2848 6.592c.9172.492 1.4874 1.452 1.4816438 2.492-.0058438 1.042-.5864438 1.994-1.5092438 2.476l-12.1438 6.344c-1.375.72-3.0746.186-3.7928-1.19-.7184-1.374-.1852-3.074 1.1898-3.792l7.4386-3.886z"/><path d="m110.21502 75.484c1.367-.734 3.0724-.22 3.8058 1.148.7336 1.366.2194 3.072-1.1476 3.806l-7.6072 4.082 7.4386 3.886c1.375.718 1.9082 2.418 1.1898 3.792-.7182 1.376-2.4178 1.91-3.7928 1.19l-12.1438-6.344c-.9228-.482-1.5034-1.434-1.5092438-2.476-.0057562-1.04.5644438-2 1.4816438-2.492z"/></g></g></svg>
